build/img/icon-professionals.svg

<svg width="18" height="20" fill="none" xmlns="http://www.w3.org/2000/svg"><path d="M9 16.178l4.62-1.256.623-6.778H6.026L5.822 5.89h8.626l.227-2.211H3.325l.636 6.678h7.82l-.261 2.866L9 13.89l-2.52-.667-.158-1.844h-2.27l.329 3.544L9 16.178zM0 0h18l-1.623 18L9 20l-7.377-2L0 0z" fill="#607B96"/></svg>

<svg width="18" height="20" viewBox="0 0 18 20" fill="none" xmlns="http://www.w3.org/2000/svg">
<path d="M9 16.178L13.62 14.922L14.243 8.144H6.026L5.822 5.89H14.448L14.675 3.679H3.325L3.961 10.357H11.781L11.52 13.223L9 13.89L6.48 13.223L6.322 11.379H4.052L4.381 14.923L9 16.178ZM0 0H18L16.377 18L9 20L1.623 18L0 0Z" fill="#607B96"/>
</svg>
